X:47
T:Captain Ross
M:C|
L:1/8
K:A
E3c      TB>AFB|A/A/A TcA  eATcA|E3c         TB>AFB|ef/g/  ac A/A/A A2:|
ef/g/ ac TB>AFB|ef/g/  ae Tfeae |f/e/f/g/ ac TB>AFB|A/A/A TcB A2    e2:|

% @@@@@@@@@@@@@@@@@@@@@@@@@@@@@@@@@@

%% 48. ===============================================================================

% +&K&ate &Mc&farlan.+
%
% *SETT and cast down the first Couple.  Sett and cast down the 2d.  *Lead up to the
% head, and cast down the first Couple again.  *SETT cross Partners.  *Four hands round.
% Then Right and Left.

% @@@@@@@@@@@@@@@@@@@@@@@@@@@@@@@@@@

